resources/icons/npmignore.svg

<svg xmlns="http://www.w3.org/2000/svg" width="16" height="16" fill="#b6b6b6" viewBox="0 0 24 24"><path d="M3 3v18h18V3H3m3 3h12v12h-3V9h-3v9H6V6z"/></svg>

<svg xmlns="http://www.w3.org/2000/svg" xmlns:xlink="http://www.w3.org/1999/xlink" width="16" height="16" fill="#b6b6b6" version="1.1" viewBox="0 0 24 24"><path d="M3,3V21H21V3H3M6,6H18V18H15V9H12V18H6V6Z"/></svg>
